!!!COM: Robert Schumann
!!!CNT: Deutscher
!!!TXO: Deutsche 
!!!OTL: Im Walde
!!!OPR: Liederkreis
!!!OPS: Opus 39
!!!ONM: No. 11
!!!LYR: Eichendorff
!!!ENC: Brian Bice
!!!YOR: Sa2mtliche Lieder, vol. 1, C.F. Peters
!!!ODT: 1840/
!!NB: Vocal melody and text only encoded.
**kern	**silbe
*clefG2	*
*k[f#c#g#]	*
*M6/8	*
=2	=2
4r	.
8r	.
4r	.
{8a	{Es
=3	=3
4a	zog
16a	ei-
16a	-ne
8.a	hoch-
16b	-zeit
8cc#	den
=4	=4
4b	Berg
8a	ent-
4.a}	-lang,}
=8	=8
4r	.
8r	.
4r	.
{8a	{ich
=9	=9
8.a	ho2r-
16a	-te
8a	die
(8a	Vo2-
8b)	|
8cc#	-gel
=10	=10
(4b	schla-
8a)	|
4a}	-gen,}
8r	.
=13	=13
4r	.
8r	.
4r	.
{8b	{da
=14	=14
8.b	blitz-
16b	-ten
8b	viel
8b	Rei-
8cc#	-ter,
8dd	das
=15	=15
4dd	Wald-
8a	-horn
4.a}	klang,}
=17	=17
4r	.
8r	.
4r	.
{8b	{das
=18	=18
4b	war
8b	ein
8b	lu-
8cc#	-sti-
8dd	-ges
=19	=19
(4dd	Ja-
8a)	|
4a}	-gen!}
8r	.
=23	=23
4r	.
8r	.
4r	.
{8c#	{Und
=24	=24
8f#	eh'
8f#	ich's
8f#	ge-
4f#	-dacht,
8a#	war
=25	=25
8g#	al-
8f#	-les
8f#	ver
4.f#}	hallt,}
=29	=29
4r	.
8r	.
4r	.
{8d#	{die
=30	=30
4g#	Nacht
8g#	be-
8g#	-dek-
8a#	-ket
8b	die
=31	=31
(4a#	Run-
8g#)	|
4g#}	-de,}
8r	.
=33	=33
{4.e	{nur
4e	von
8e	den
=34	=34
4.e	Ber-
4an	-gen
8e	noch
=35	=35
4.e	rau-
4e	-schet
8e	der
=36	=36
(4.e	Wald,
4.b)}	|}
=37	=37
4r	.
8r	.
{4e	{und
8e	mich
=38	=38
4.e	schau-
4cc#	-ert's
8cc#	im
=39	=39
4.b	Her-
4.cc#	-zens-
=40	=40
(2.dd	-grun-
=41	=41
4.cc#	|
4.ccn)	|
=42	=42
4b}	-de,}
8r	.
4r	.
8r	.
=43	=43
4r	.
8r	.
{4b	{und
8cc#	mich
=44	=44
2.dd	schau-
=45	=45
[4.cc#	-ert's
4cc#]	|
8cc#	im
=46	=46
(2.b	Her-
=47	=47
[4.g#)	|
4g#]	|
8a	-zens-
=48	=48
([2.a	-grun-
=49	=49
4.a_	|
4a]	|
8A)	|
=50	=50
4A}	-de.}
8r	.
*-	*-
